X:179 
T:Rambler, The  
T:Father Hanley's
B:CRE 3.031 (An FÃÂÃÂÃÂÃÂ¡naÃÂÃÂÃÂÃÂ­)
F:file ID: cre.3/179ramb
N:If the low C in measure 1 and 5 presents a problem,
play F.
Q:160
L:1/8
M:6/8
R:jig
K:A
F|E[CF]E E2A|FEE E2e|fec ABc|BAA FAF|
E[CF]E E2A|FEE E2e|fec ABc|BAA A2:|
f|ecA Ace|aff faf|ecA edc|BcB Bcd|
ecA Ace|aff faf|ecA B3|cAA A2:|

%%%

